src/pos-icons/account-search-outline.svg

<svg height="24" viewBox="0 0 24 24" width="24" xmlns="http://www.w3.org/2000/svg"><path d="m10 13c-.35.59-.64 1.24-.81 1.93-2.69.23-5.29 1.49-5.29 2.07v1.1h5.3c.17.68.45 1.32.8 1.9h-8v-3c0-2.66 5.33-4 8-4m0-9a4 4 0 0 1 4 4c0 .91-.31 1.75-.82 2.43-.86.32-1.63.83-2.27 1.47l-.91.1a4 4 0 0 1 -4-4 4 4 0 0 1 4-4m0 1.9a2.1 2.1 0 0 0 -2.1 2.1 2.1 2.1 0 0 0 2.1 2.1 2.1 2.1 0 0 0 2.1-2.1 2.1 2.1 0 0 0 -2.1-2.1m5.5 6.1c2.5 0 4.5 2 4.5 4.5 0 .88-.25 1.71-.69 2.4l3.08 3.1-1.39 1.39-3.12-3.07c-.69.43-1.51.68-2.38.68-2.5 0-4.5-2-4.5-4.5s2-4.5 4.5-4.5m0 2a2.5 2.5 0 0 0 -2.5 2.5 2.5 2.5 0 0 0 2.5 2.5 2.5 2.5 0 0 0 2.5-2.5 2.5 2.5 0 0 0 -2.5-2.5z"/></svg>

<?xml version="1.0" encoding="UTF-8"?><!DOCTYPE svg PUBLIC "-//W3C//DTD SVG 1.1//EN" "http://www.w3.org/Graphics/SVG/1.1/DTD/svg11.dtd"><svg xmlns="http://www.w3.org/2000/svg" xmlns:xlink="http://www.w3.org/1999/xlink" version="1.1" id="mdi-account-search-outline" width="24" height="24" viewBox="0 0 24 24"><path d="M10,13C9.65,13.59 9.36,14.24 9.19,14.93C6.5,15.16 3.9,16.42 3.9,17V18.1H9.2C9.37,18.78 9.65,19.42 10,20H2V17C2,14.34 7.33,13 10,13M10,4A4,4 0 0,1 14,8C14,8.91 13.69,9.75 13.18,10.43C12.32,10.75 11.55,11.26 10.91,11.9L10,12A4,4 0 0,1 6,8A4,4 0 0,1 10,4M10,5.9A2.1,2.1 0 0,0 7.9,8A2.1,2.1 0 0,0 10,10.1A2.1,2.1 0 0,0 12.1,8A2.1,2.1 0 0,0 10,5.9M15.5,12C18,12 20,14 20,16.5C20,17.38 19.75,18.21 19.31,18.9L22.39,22L21,23.39L17.88,20.32C17.19,20.75 16.37,21 15.5,21C13,21 11,19 11,16.5C11,14 13,12 15.5,12M15.5,14A2.5,2.5 0 0,0 13,16.5A2.5,2.5 0 0,0 15.5,19A2.5,2.5 0 0,0 18,16.5A2.5,2.5 0 0,0 15.5,14Z" /></svg>
